Facilitet_punkt_5800_Piktogrammer/Cirkel/SVG/VIRTUELT OPLEVELSESPUNKT.svg

<svg xmlns="http://www.w3.org/2000/svg" width="5.5mm" height="5.5mm" viewBox="0 0 15.591 15.591">
  <rect width="15.591" height="15.591" rx="7.795" fill="#031E3A"/>
  <g>
    <path d="M10.108,6.134l-1.584-.6V5.259a.141.141,0,0,0-.1-.134L6.639,4.566a.277.277,0,0,0-.272-.239.28.28,0,0,0-.281.28v4.83a.281.281,0,1,0,.561,0V7.126l1.532-.48v.276a.141.141,0,0,0,.19.131L10.108,6.4a.141.141,0,0,0,0-.263Z" fill="#fff"/>
    <path d="M10.1,1.971H5.739A1.131,1.131,0,0,0,4.61,3.1v9.391a1.13,1.13,0,0,0,1.129,1.128H10.1a1.128,1.128,0,0,0,1.127-1.128V3.1A1.129,1.129,0,0,0,10.1,1.971Zm.7,10.52a.7.7,0,0,1-.7.7H5.739a.7.7,0,0,1-.7-.7V11.382H10.8Zm0-1.54H5.041V3.1a.7.7,0,0,1,.7-.7H10.1a.7.7,0,0,1,.7.7Z" fill="#fff"/>
    <path d="M7.3,12.486H8.536a.216.216,0,0,0,0-.431H7.3a.216.216,0,0,0,0,.431Z" fill="#fff"/>
  </g>
</svg>

<?xml version="1.0" encoding="UTF-8"?>
<svg xmlns="http://www.w3.org/2000/svg" viewBox="0 0 15.59 15.59">
  <defs>
    <style>
      .cls-1 {
        fill: #071f39;
      }

      .cls-1, .cls-2 {
        stroke-width: 0px;
      }

      .cls-2 {
        fill: #fff;
      }
    </style>
  </defs>
  <g id="Cirkel">
    <rect class="cls-1" x="0" y="0" width="15.59" height="15.59" rx="7.8" ry="7.8"/>
  </g>
  <g id="ICONS">
    <g>
      <path class="cls-2" d="M10.11,6.13l-1.58-.6v-.28c0-.06-.04-.12-.1-.13l-1.79-.56c-.02-.13-.13-.24-.27-.24-.16,0-.28.13-.28.28v4.83c0,.16.13.28.28.28s.28-.13.28-.28v-2.31l1.53-.48v.28s.02.09.06.12c.02.02.05.02.08.02.02,0,.03,0,.05,0l1.74-.66c.05-.02.09-.07.09-.13s-.04-.11-.09-.13Z"/>
      <path class="cls-2" d="M10.1,1.97h-4.36c-.62,0-1.13.51-1.13,1.13v9.39c0,.62.51,1.13,1.13,1.13h4.36c.62,0,1.13-.51,1.13-1.13V3.1c0-.62-.51-1.13-1.13-1.13ZM10.79,12.49c0,.38-.31.7-.7.7h-4.36c-.38,0-.7-.31-.7-.7v-1.11h5.75v1.11ZM10.79,10.95h-5.75V3.1c0-.38.31-.7.7-.7h4.36c.38,0,.7.31.7.7v7.85Z"/>
      <path class="cls-2" d="M7.3,12.49h1.24c.12,0,.22-.1.22-.22s-.1-.22-.22-.22h-1.24c-.12,0-.22.1-.22.22s.1.22.22.22Z"/>
    </g>
  </g>
</svg>
